X: 34224
T: Reel St. Jean
R: reel
M: 4/4
K: Bminor
dB~B2 FB~B2|dfBd f2ed|cA~A2 EA~A2|ceAc e2fe|
dB~B2 FB~B2|dfBd f2cB|~A3c e2fe|1 dBcA B2fe:|2 dBcA B2(3ABc||
d2dc defg|a2ab afed|d'2 b2 afde|fdef edBA|
d2dc defg|a2ab afed|d'2 b2 afde|1 fdec d2(3ABc:|2 fdec d2fe||

